src/components/Icon/svg-icon/twitter/comment.svg

<svg xmlns="http://www.w3.org/2000/svg" xmlns:xlink="http://www.w3.org/1999/xlink" width="24" height="24" viewBox="0 0 24 24">
  <defs>
    <path id="comment-a" d="M16.1558462,14.2023077 C15.3513846,14.8829231 12.7086154,16.6156923 11.3549231,17.4933846 L11.3549231,15.234 C11.3549231,14.9410769 11.1169231,14.702 10.824,14.702 L10.5418462,14.702 C7.94646154,14.702 6.06292308,12.9476923 6.06292308,10.53 C6.06292308,8.02507692 8.02507692,6.06292308 10.5289231,6.06292308 L13.4678462,6.06938462 L13.4689231,6.06938462 C15.9738462,6.06938462 17.9338462,8.03046154 17.936,10.5332308 C17.936,11.8869231 17.2693846,13.2578462 16.1558462,14.2023077 M13.4710769,5.00646154 L13.4710769,5.00646154 L10.5310769,5 L10.53,5 L10.5289231,5 C7.42846154,5 5,7.42846154 5,10.53 C5,13.4344615 7.25830769,15.6378462 10.292,15.7541538 L10.292,18.468 C10.292,18.5444615 10.3221538,18.6704615 10.376,18.7544615 C10.4772308,18.9127692 10.6484615,19 10.824,19 C10.922,19 11.0210769,18.9730769 11.1093846,18.916 C11.2967692,18.7975385 15.6981538,15.9813846 16.8429231,15.0132308 C18.1912308,13.8716923 18.9967692,12.2003077 19,10.5396923 L19,10.5364615 L19,10.5332308 L19,10.5278462 C18.9956923,7.43169231 16.5683077,5.00753846 13.4710769,5.00646154"/>
  </defs>
  <use fill="#677078" xlink:href="#comment-a"/>
</svg>

<svg xmlns="http://www.w3.org/2000/svg" xmlns:xlink="http://www.w3.org/1999/xlink" width="24" height="24"><defs><path id="a" d="M16.156 14.202c-.805.68-3.447 2.414-4.801 3.291v-2.259a.532.532 0 00-.531-.532h-.282c-2.596 0-4.48-1.754-4.48-4.172 0-2.505 1.963-4.467 4.467-4.467l2.939.006c2.506 0 4.466 1.961 4.468 4.464 0 1.354-.667 2.725-1.78 3.67M13.47 5.005L10.531 5h-.002C7.429 5 5 7.428 5 10.53c0 2.904 2.258 5.108 5.292 5.224v2.714a.531.531 0 00.817.448c.188-.118 4.59-2.935 5.734-3.903C18.19 13.872 18.997 12.2 19 10.54v-.012c-.004-3.096-2.432-5.52-5.529-5.522"/></defs><use fill="#677078" xlink:href="#a"/></svg>
